style-guide/assets/xd-icons-activity-tiny.svg

<svg viewBox="0 0 12 12" xmlns="http://www.w3.org/2000/svg">
  <path d="M8 12.001a.87.87 0 0 1-.349-.063l-.002-.001a.365.365 0 0 1-.035-.014l-.002-.001a.986.986 0 0 1-.541-.55L3.993 3.676 2.988 6.149A.999.999 0 0 1 2 7h-.008a.352.352 0 0 1-.046 0H1a1 1 0 1 1 0-2h.296L3.072.626l.005-.011V.613A.996.996 0 0 1 4.005 0c.114.001.23.021.343.063h.002l.035.014a.986.986 0 0 1 .543.552l3.078 7.696 1.005-2.473A1 1 0 0 1 10 5h1a1 1 0 0 1 0 2h-.297l-1.776 4.375-.005.011v.001a1.005 1.005 0 0 1-.922.614"/>
</svg>

<?xml version="1.0" encoding="UTF-8"?>
<svg width="12px" height="12px" viewBox="0 0 12 12" version="1.1" xmlns="http://www.w3.org/2000/svg" xmlns:xlink="http://www.w3.org/1999/xlink">
    <!-- Generator: Sketch 51.3 (57544) - http://www.bohemiancoding.com/sketch -->
    <title>activity</title>
    <desc>Created with Sketch.</desc>
    <defs></defs>
    <g id="activity" stroke="none" stroke-width="1" fill="none" fill-rule="evenodd">
        <path d="M8,12.001 C7.888,12.009 7.766,11.98 7.651,11.938 C7.65,11.938 7.649,11.937 7.649,11.937 C7.637,11.933 7.625,11.928 7.614,11.923 C7.613,11.923 7.613,11.923 7.612,11.922 C7.488,11.87 7.38,11.796 7.291,11.706 C7.198,11.613 7.123,11.501 7.071,11.372 L3.993,3.676 L2.988,6.149 C2.917,6.631 2.501,7 2,7 L1.992,7 C1.979,7.001 1.963,7.001 1.946,7 L1,7 C0.447,7 0,6.553 0,6 C0,5.448 0.447,5 1,5 L1.296,5 L3.072,0.626 C3.074,0.622 3.075,0.619 3.077,0.615 C3.077,0.614 3.077,0.613 3.077,0.613 C3.128,0.491 3.201,0.385 3.289,0.296 C3.383,0.201 3.497,0.124 3.628,0.071 C3.752,0.022 3.885,0 4.005,0 C4.119,0.001 4.235,0.021 4.348,0.063 C4.349,0.063 4.35,0.063 4.35,0.063 C4.362,0.068 4.374,0.072 4.385,0.077 C4.386,0.078 4.387,0.078 4.387,0.078 C4.511,0.13 4.619,0.204 4.708,0.294 C4.801,0.387 4.876,0.5 4.928,0.629 L8.006,8.325 L9.011,5.852 C9.083,5.369 9.498,5 10,5 L10.007,5 C10.021,5.001 10.037,5.001 10.053,5 L11,5 C11.552,5 12,5.448 12,6 C12,6.553 11.552,7 11,7 L10.703,7 L8.927,11.375 C8.925,11.378 8.924,11.382 8.922,11.386 C8.922,11.386 8.922,11.387 8.922,11.387 C8.871,11.509 8.798,11.616 8.71,11.704 C8.616,11.799 8.502,11.876 8.371,11.929 C8.249,11.978 8.124,12.001 8,12.001" id="Fill-1" fill="#000000"></path>
    </g>
</svg>
